X: 28910
T: Na Ceannabháin Bhána
R: slip jig
M: 9/8
K: Cmajor
e2c dcA cAG|AcG GAc d3|ecc dcA cAG|AcG GAc c2d|
ecc dcA cAG|AcG GAc d3|ecc dcA cAG|AcG GAc c2d||
egg agg edc|egg age d3|egg agg edc|cAG GAc c2d|
egg agg edc|ceg age d3|egg agg edc|cAG GAc c3||

